!!!CDT:
!!!PTL: L'amorosa caccia. A cinque voci
!!!PPP: Venice
!!!PPR: Angelo Gardano
!!!PDT: 1588
!!!PUB-format: anthology
!!!RISM: 1588-14
!!!rime: 276
!!!AGN: Madrigal
!!!SCT: Trm0276a
!!!SCA: Trm0276a
!!!original-voices: 5
!!!extant-voices: 5
!!!complete: Y
!!!final: G
!!!COM: Bacchini, Giovanni Maria
!!!OTL: Più che Dïana è bella e più mi piace
**kern	**text	**kern	**text	**kern	**text	**kern	**text	**kern	**text
*part5	*part5	*part4	*part4	*part3	*part3	*part2	*part2	*part1	*part1
*staff5	*staff5	*staff4	*staff4	*staff3	*staff3	*staff2	*staff2	*staff1	*staff1
*I"Basso	*	*I"Quinto	*	*I"Tenore	*	*I"Alto	*	*I"Canto	*
*I'B	*	*I'V	*	*I'T	*	*I'A	*	*I'C	*
*oclefF3	*	*oclefC3	*	*oclefC3	*	*oclefC2	*	*oclefG2	*
*clefF4	*	*clefGv2	*	*clefGv2	*	*clefG2	*	*clefG2	*
*k[b-]	*	*k[b-]	*	*k[b-]	*	*k[b-]	*	*k[b-]	*
*F:	*	*F:	*	*F:	*	*F:	*	*F:	*
*omet(C|)	*	*omet(C|)	*	*omet(C|)	*	*omet(C|)	*	*omet(C|)	*
*M2/1	*	*M2/1	*	*M2/1	*	*M2/1	*	*M2/1	*
=1	=1	=1	=1	=1	=1	=1	=1	=1	=1
0r	.	0r	.	0r	.	1r	.	2g	Più
.	.	.	.	.	.	.	.	4dd	che
.	.	.	.	.	.	.	.	4dd	Di-
.	.	.	.	.	.	2d	Più	4ff	-a-
.	.	.	.	.	.	.	.	4ff	-na è
.	.	.	.	.	.	4a	che	2ee	bel-
.	.	.	.	.	.	4a	Di-	.	.
=2	=2	=2	=2	=2	=2	=2	=2	=2	=2
0r	.	1r	.	0r	.	4b-y	-a-	2dd	-la e
.	.	.	.	.	.	4b-y	-na è	.	.
.	.	.	.	.	.	2a	bel-	2.cc	più
.	.	2G	Più	.	.	2g	-la e	.	.
.	.	.	.	.	.	.	.	4b-y	mi
.	.	4d	che	.	.	4f#X	più	2a	pia-
.	.	4d	Di-	.	.	4f#i	mi	.	.
=3	=3	=3	=3	=3	=3	=3	=3	=3	=3
1r	.	4e-X	-a-	2r	.	4.g	pia-	2g	-ce,
.	.	4e-i	-na è	.	.	.	.	.	.
.	.	.	.	.	.	8a	.	.	.
.	.	2d	bel-	2G	Più	2b-y	.	2r	.
2r	.	2f	-la e	4d	che	1a	-ce,	2r	.
.	.	.	.	4d	Di-	.	.	.	.
2D	Più	4d	più	4f	-a-	.	.	2dd	e
.	.	4d	mi	4f	-na è	.	.	.	.
=4	=4	=4	=4	=4	=4	=4	=4	=4	=4
4A	che	2c	pia-	2e	bel-	1r	.	4ee	più
4A	Di-	.	.	.	.	.	.	4cc	mi
4B-y	-a-	2f	-ce,	2d	-la e	.	.	2dd	pia-
4B-y	-na è	.	.	.	.	.	.	.	.
2A	bel-	1r	.	4e	più	2a	e	2cc	-ce,
.	.	.	.	4c	mi	.	.	.	.
2G	-la e	.	.	4.d	pia-	4b-y	più	2gg	e
.	.	.	.	.	.	4b-y	mi	.	.
.	.	.	.	8B-y	.	.	.	.	.
=5	=5	=5	=5	=5	=5	=5	=5	=5	=5
4F	più	2r	.	4c	.	1a	pia-	4cc	più
4D	mi	.	.	2d	.	.	.	4ff	mi
2A	pia-	2e	e	.	.	.	.	2ee	pia-
.	.	.	.	4c#X	.	.	.	.	.
1D	-ce,	1f	più	2d	-ce,	1a	-ce,	2dd	-ce,
.	.	.	.	2d	e	.	.	[2ff	<e
=6	=6	=6	=6	=6	=6	=6	=6	=6	=6
2F	e	2a	mi	2cnXi	più	2r	.	2ff]	.
4G	più	2.g	pia-	2B-y	mi	2d	e	2dd	più
4G	mi	.	.	.	.	.	.	.	.
1A	pia-	.	.	1A	pia-	4a	più	4cc	mi
.	.	4f	.	.	.	4a	mi	2dd	pia-
.	.	2e	.	.	.	2a	pia-	.	.
.	.	.	.	.	.	.	.	4cc#X	.
=7	=7	=7	=7	=7	=7	=7	=7	=7	=7
1D	-ce	2d	-ce	1A	-ce	2f#X	-ce	1dd	-ce>
.	.	4.f	Que-	.	.	2r	.	.	.
.	.	8g	-sta	.	.	.	.	.	.
4r	.	4a	mia	2r	.	2r	.	4r	.
4.G	Que-	2g	don-	.	.	.	.	4.b-y	Que-
.	.	.	.	4.d	Que-	4r	.	.	.
8A	-sta	.	.	.	.	.	.	8ccnXi	-sta
4B-y	mia	4f	-na,	.	.	[4fnXi	Que-	4dd	mia
.	.	.	.	8e	-sta	.	.	.	.
=8	=8	=8	=8	=8	=8	=8	=8	=8	=8
2F	don-	4.a	an-	4f	mia	8f]	.	2cc	Don-
.	.	.	.	.	.	8g	-sta	.	.
.	.	.	.	2f	don-	4a	mia	.	.
.	.	8g	-zi	.	.	.	.	.	.
2BB-y	-na,	4f	mia	.	.	4.b-y	don-	2dd	-na,
.	.	4.B-y	vi-	4d	-na,	.	.	.	.
.	.	.	.	.	.	16aL	.	.	.
.	.	.	.	.	.	16gJ	.	.	.
4r	.	.	.	4.d	an-	4.f	.	2r	.
.	.	8c	.	.	.	.	.	.	.
4.B-y	an-	4.d	.	.	.	.	.	.	.
.	.	.	.	8e	-zi	8e	.	.	.
.	.	.	.	4f	mia	2d	.	4.b-y	an-
8c	-zi	8e	.	.	.	.	.	.	.
4d	mia	[4f	.	[4B-y	vi-	.	.	.	.
.	.	.	.	.	.	.	.	8cc	-zi
=9	=9	=9	=9	=9	=9	=9	=9	=9	=9
4.B-y	vi-	8f]L	.	8B-]L	.	2f	-na,	4dd	mia
.	.	8eJ	.	8c	.	.	.	.	.
.	.	2d	.	8d	.	.	.	4.dd	vi-
8A	.	.	.	8c	.	.	.	.	.
4.G	.	.	.	8B-y	.	4.b-y	an-	.	.
.	.	.	.	8AJ	.	.	.	8cc	-va
.	.	4d	-va	2G	.	.	.	2b-y	fa-
8F	.	.	.	.	.	8a	-zi	.	.
4E-X	.	2e-X	fa-	.	.	4g	mia	.	.
4C	-va	.	.	4G	-va	4.g	vi-	4cc	.
2D	fa-	2d	-ce;	2d	fa-	.	.	2a	.
.	.	.	.	.	.	8g	-va	.	.
.	.	.	.	.	.	4f#i	fa-	.	.
=10	=10	=10	=10	=10	=10	=10	=10	=10	=10
2G	-ce;	2r	.	2d	-ce;	2g	-ce;	2b-y	-ce;
2r	.	2f	Ma	2d	Ma	2a	Ma	2r	.
1r	.	4enXi	non	4c#X	non	2a	non	1r	.
.	.	4f	ri-	4d	ri-	.	.	.	.
.	.	4d	-scal-	4BnX	-scal-	2g	ri-	.	.
.	.	4e	-d'a	4cnXi	-d'a	.	.	.	.
=11	=11	=11	=11	=11	=11	=11	=11	=11	=11
0r	.	2f	pe-	8FL	pe-	2a	-scal-	0r	.
.	.	.	.	8G	.	.	.	.	.
.	.	.	.	8A	.	.	.	.	.
.	.	.	.	8B-XJ	.	.	.	.	.
.	.	4e	.	4c	.	4g	-d'a	.	.
.	.	2d	.	4d	.	2f	pe-	.	.
.	.	.	.	2A	.	.	.	.	.
.	.	8c#iL	.	.	.	8eL	.	.	.
.	.	8BnXJ	.	.	.	8dJ	.	.	.
.	.	2c#X	.	2A	-na,	2e	.	.	.
=12	=12	=12	=12	=12	=12	=12	=12	=12	=12
2D	Ma	2d	-na,	2f	<Ma	2d	-na,	2a	Ma
4C#X	non	2r	.	4e	non	2r	.	4a	non
4D	ri-	.	.	4f	ri-	.	.	4a	ri-
4BBnX	-scal-	1r	.	4d	-scal-	1r	.	4.g	-scal-
4CnXi	-d'a	.	.	4e	-d'a	.	.	.	.
.	.	.	.	.	.	.	.	8a	.
8DL	pe-	.	.	2f	pe-	.	.	4b-y	.
8E	.	.	.	.	.	.	.	.	.
8F	.	.	.	.	.	.	.	4a	-d'a
8GJ	.	.	.	.	.	.	.	.	.
=13	=13	=13	=13	=13	=13	=13	=13	=13	=13
8AL	.	1r	.	4e	-na,>	2r	.	2cc	pe-
8B-i	.	.	.	.	.	.	.	.	.
8cnXi	.	.	.	4e	a	.	.	.	.
8AJ	.	.	.	.	.	.	.	.	.
2d	.	.	.	2f	pe-	4r	.	2a	-na,
.	.	.	.	.	.	4d	a	.	.
2A	-na	2r	.	2e	-na	2c#X	pe-	2r	.
2r	.	4r	.	2r	.	4d	-na,	4r	.
.	.	4d	Ma	.	.	4a	Ma	4ff	<Ma
=14	=14	=14	=14	=14	=14	=14	=14	=14	=14
0r	.	4c#X	non	0r	.	4a	non	4ee	non
.	.	4d	ri-	.	.	4a	ri-	4ff	ri-
.	.	4BnX	-scal-	.	.	4g	-scal-	4dd	-scal-
.	.	4cnXi	-d'a	.	.	4g	-d'a	4ee	-d'a
.	.	8FL	pe-	.	.	2a	pe-	2ff	pe-
.	.	8G	.	.	.	.	.	.	.
.	.	8A	.	.	.	.	.	.	.
.	.	8F	.	.	.	.	.	.	.
.	.	8G	.	.	.	4b-y	-na,	[2dd	.
.	.	8A	.	.	.	.	.	.	.
.	.	8B-i	.	.	.	4b-y	ri-	.	.
.	.	8cJ	.	.	.	.	.	.	.
=15	=15	=15	=15	=15	=15	=15	=15	=15	=15
1r	.	8dL	.	2r	.	4a	-scal-	4dd]	.
.	.	8eJ	.	.	.	.	.	.	.
.	.	2f	.	.	.	4a	-d'a	8ccL	.
.	.	.	.	.	.	.	.	8b-yJ	.
.	.	.	.	2c	Quan-	2g	pe-	2cc	.
.	.	4e	.	.	.	.	.	.	.
2F	Quan-	4f	-na	4.c	-d'el-	4a	-na	4cc	-na>
.	.	4f	Quan-	.	.	4a	Quan-	4cc	Quan-
.	.	.	.	8c	-la è	.	.	.	.
4.BB-y	-d'el-	4.f	-d'el-	4B-y	più	4.b-y	-d'el-	4.dd	-d'el-
.	.	.	.	4B-y	lu-	.	.	.	.
8BB-y	-la è	8f	-la è	.	.	8b-y	-la è	8dd	-la è
=16	=16	=16	=16	=16	=16	=16	=16	=16	=16
4F	più	4f	più	4c	-cen-	4a	più	4cc	più
4F	lu-	4f	lu-	4A	-t'e	4a	lu-	4cc	lu-
4.G	-cen-	4.d	-cen-	2B-y	più	4.g	-cen-	4b-y	-cen-
.	.	.	.	.	.	.	.	4dd	-t'e
8G	-t'e	8d	-t'e	.	.	8g	-t'e	.	.
4D	più	4f	più	2A	se-	4a	più	4dd	più
4F	se-	4c	se-	.	.	2f	se-	4cc	se-
2C	-re-	2c	-re-	2G	-re-	.	.	2cc	-re-
.	.	.	.	.	.	4e	-re-	.	.
=17	=17	=17	=17	=17	=17	=17	=17	=17	=17
2F	-na,	4c	-na,	2F	-na,	2f	-na,	4a	-na,
.	.	4c	e	.	.	.	.	4ff	e
4r	.	4c	più	2r	.	2r	.	4ee	più
4A	Quan-	4c	se-	.	.	.	.	4ee	se-
8B-y	-d'el-	1f	-re-	4r	.	4r	.	2dd	-re-
8A	-la è	.	.	.	.	.	.	.	.
8B-y	più	.	.	4d	Quan-	4b-y	<Quan-	.	.
8c	lu-	.	.	.	.	.	.	.	.
[2d	-cen-	.	.	8B-y	-d'el-	4b-y	-d'el-	2dd	-na,
.	.	.	.	8A	-la è	.	.	.	.
.	.	.	.	8B-y	più	4b-y	-la è	.	.
.	.	.	.	8c	lu-	.	.	.	.
=18	=18	=18	=18	=18	=18	=18	=18	=18	=18
4d]	.	2f	-na,	4d	-cen-	8a	più	1r	.
.	.	.	.	.	.	8g	lu-	.	.
4d	-t'e	.	.	4f	-t'e	8a	-cen-	.	.
.	.	.	.	.	.	8b-y	-t'e	.	.
4c	più	2r	.	4e	più	4a	più	.	.
4B-y	se-	.	.	4d	se-	4g	se-	.	.
2A	-re-	4r	.	2c	-re-	2f#X	-re-	2r	.
.	.	4A	Quan-	.	.	.	.	.	.
2G	-na,	8B-y	-d'el-	4d	-na,	2g	-na,>	4r	.
.	.	8A	-la< è	.	.	.	.	.	.
.	.	8B-y	più	4g	<Quan-	.	.	4dd	<e
.	.	8c	lu-	.	.	.	.	.	.
=19	=19	=19	=19	=19	=19	=19	=19	=19	=19
1r	.	4d	-cen-	8f	-d'el-	1r	.	4dd	più
.	.	.	.	8e	-la è	.	.	.	.
.	.	4B-y	-t'e	8f	più	.	.	4dd	se-
.	.	.	.	8g	lu-	.	.	.	.
.	.	4.A	più	4a	-cen-	.	.	8ccL	-re-
.	.	.	.	.	.	.	.	8b-y	.
.	.	.	.	4f	-t'e	.	.	8cc	.
.	.	8B-y	se-	.	.	.	.	8ddJ	.
2r	.	4c	-re-	4e	più	4r	.	4cc	.
.	.	4G	.	2g	se-	4d	Né	4b-y	.
2D	Né	2d	.	.	.	4d	spar-	2a	.
.	.	.	.	4f#X	-re-	4A	-ge i	.	.
=20	=20	=20	=20	=20	=20	=20	=20	=20	=20
4.G	spar-	2d	-na,>	4g	-na,>	4.B-y	rai,	2g	-na,>
.	.	.	.	4d	Né	.	.	.	.
8A	.	.	.	.	.	8c	.	.	.
4B-y	.	2r	.	4d	spar-	2d	.	4r	.
4G	-ge i	.	.	4d	-ge i	.	.	4gg	Né
4D	rai,	2r	.	4.fnXi	rai,	4r	.	4.ff	spar-
4d	Né	.	.	.	.	4f	Né	.	.
.	.	.	.	16eL	.	.	.	8ff	-ge i
.	.	.	.	16dJ	.	.	.	.	.
4c	spar-	4r	.	4g	.	4g	spar-	4ee	ra-
8B-yL	.	4d	Né	4d	Né	4a	-ge i	4dd	-i,
8AJ	.	.	.	.	.	.	.	.	.
=21	=21	=21	=21	=21	=21	=21	=21	=21	=21
4G	.	4d	spar-	8B-yL	spar-	2b-y	ra-	2r	.
.	.	.	.	8A	.	.	.	.	.
4G	-ge i	4d	-ge i	8B-y	.	.	.	.	.
.	.	.	.	8cJ	.	.	.	.	.
2D	ra-	4.f	ra-	4.d	.	2a	-i	4r	.
.	.	.	.	.	.	.	.	4dd	Né
.	.	8e	.	8e	.	.	.	.	.
2D	-i	2d	.	4f#X	.	2r	.	4dd	spar-
.	.	.	.	4f#i	-ge i	.	.	4a	-ge i
2r	.	[2G	-i	[2g	rai	2d	con	4.b-y	rai
.	.	.	.	.	.	.	.	8cc	.
=22	=22	=22	=22	=22	=22	=22	=22	=22	=22
2G	con	4G]	.	4g]	.	2.b-y	ru-	2.dd	.
.	.	4d	con	4g	con	.	.	.	.
4.B-y	ru-	4.d	ru-	4fnXi	ru-	.	.	.	.
.	.	.	.	2f	-gia-	4b-y	-gia-	4dd	con
8B-y	-gia-	8B-y	-gia-	.	.	.	.	.	.
4F	-do-	4c	-do-	.	.	4a	-do-	4cc	ru-
4G	-se	4g	-se	2d	-do-	4d	-se	4b-y	-gia-
2A	stil-	8fL	stil-	.	.	[2a	stil-	4a	-do-
.	.	16e	.	.	.	.	.	.	.
.	.	16dJ	.	.	.	.	.	.	.
.	.	4e	.	4c#X	-se	.	.	4ee	-se
=23	=23	=23	=23	=23	=23	=23	=23	=23	=23
2D	-le,	4d	-le,	2d	stil-	2a]	.	4.ff	stil-
.	.	4.d	stil-	.	.	.	.	.	.
.	.	.	.	.	.	.	.	16eeL	.
.	.	.	.	.	.	.	.	16ffJ	.
4r	.	.	.	4G	-le,	4g	-le,	4.gg	.
.	.	8cL	.	.	.	.	.	.	.
4G	con	8B-y	.	4g	con	4b-y	con	.	.
.	.	8cJ	.	.	.	.	.	8ee	.
4.B-y	ru-	8dL	.	8f	ru-	4b-y	ru-	4.ff	.
.	.	8eJ	.	8e	-gia-	.	.	.	.
.	.	4.f	.	2d	-do-	4b-y	-gia-	.	.
8c	-gia-	.	.	.	.	.	.	8eeL	.
4d	-do-	.	.	.	.	4a	-do-	8dd	.
.	.	16eL	.	.	.	.	.	8cc	.
.	.	16fJ	.	.	.	.	.	.	.
4G	-se	[4g	.	4B-y	-se	4g	-se	8dd	.
.	.	.	.	.	.	.	.	8eeJ	.
=24	=24	=24	=24	=24	=24	=24	=24	=24	=24
2D	stil-	8g]L	.	2A	stil-	2a	stil-	2dd	.
.	.	8f	.	.	.	.	.	.	.
.	.	8f	.	.	.	.	.	.	.
.	.	16e	.	.	.	.	.	.	.
.	.	16fJ	.	.	.	.	.	.	.
2G	-le	4g	.	4G	-le	2b-y	-le	2dd	-le
.	.	4d	-le	4.g	Ma	.	.	.	.
1r	.	4r	.	.	.	2r	.	4r	.
.	.	.	.	8a	con	.	.	.	.
.	.	4B-y	Ma	4b-y	fiam-	.	.	4dd	Ma
.	.	4c	con	2a	-me,	4r	.	4ee	con
.	.	[4d	fiam-	.	.	[4f	Ma	[4ff	fiam-
=25	=25	=25	=25	=25	=25	=25	=25	=25	=25
1r	.	8d]	.	4.d	<Ma	4f]	.	8ff]	.
.	.	8c	-m'e	.	.	.	.	8ee	-m'e
.	.	4B-y	fa-	.	.	4g	con	4dd	fa-
.	.	.	.	8e	con	.	.	.	.
.	.	2A	-vil-	4f	fiam-	4.a	fiam-	4.cc	-vil-
.	.	.	.	4e	-m>'e	.	.	.	.
.	.	.	.	.	.	8g	-m'e	8b-y	.
4r	.	4d	-le,	4f	fa-	4f	fa-	4a	.
4B-y	Ma	4G	Ma	2g	-vil-	4d	-vil-	4g	-le,
4c	con	4A	con	.	.	4c	-le,	2r	.
[4d	fiam-	[4B-y	fiam-	8fL	.	[4f	<Ma	.	.
.	.	.	.	8eJ	.	.	.	.	.
=26	=26	=26	=26	=26	=26	=26	=26	=26	=26
8d]	.	8B-]	.	2d	.	4f]	.	2b-y	Ma
8c	-m'e	8c	-m'e	.	.	.	.	.	.
4B-y	fa-	4d	fa-	.	.	4g	con	.	.
2A	-vil-	2c	-vil-	2e	-le,	2a	fiam-	2cc	con
2D	-le,	4A	-le,	4r	.	4f	-m'e	2dd	fiam-
.	.	4f	<Ma	4d	Ma	4a	fa-	.	.
4r	.	4g	con	4e	con	4g	-vil-	[2cc	-m'e
[4F	Ma	[4a	fiam-	[4f	fiam-	4f	-le,>	.	.
=27	=27	=27	=27	=27	=27	=27	=27	=27	=27
4F]	.	4a]	.	8f]	.	4a	Ma	4cc]	.
.	.	.	.	8e	-m'e	.	.	.	.
4G	con	8gL	.	4d	fa-	4b-y	con	4b-y	fa-
.	.	8fJ	.	.	.	.	.	.	.
4.A	fiam-	2e	.	2c	-vil-	4.cc	fiam-	2a	-vil-
8G	.	.	.	.	.	8b-y	-m'e	.	.
4F	.	4f	-me,>	4c	-le,	4a	fa-	4a	-le,
2G	-m'e	4d	fiam-	4B-y	fiam-	4.b-y	-vil-	4dd	fiam-
.	.	4B-y	-m'e	4G	-m'e	.	.	4dd	-m'e
.	.	.	.	.	.	8a	.	.	.
4C	fa-	4c	fa-	4G	fa-	[4g	.	4ee	fa-
=28	=28	=28	=28	=28	=28	=28	=28	=28	=28
2D	-vil-	2A	-vil-	2d	-vil-	4g]	.	2dd	-vil-
.	.	.	.	.	.	4f#X	.	.	.
2G	-le;	2G	-le;	2d	-le;	2g	-le;>	2bnX	-le;
1r	.	1r	.	1g	Tal	1b-y	Tal	1r	.
=29	=29	=29	=29	=29	=29	=29	=29	=29	=29
0r	.	0r	.	2f#X	ch'o-	2a	ch'o-	1dd	Tal
.	.	.	.	2g	-gni	2b-y	-gni	.	.
.	.	.	.	2e-X	fred-	2g	fred-	2cc	ch'o-
.	.	.	.	2d	-do	2fnXi	-do	2bnX	-gni
=30	=30	=30	=30	=30	=30	=30	=30	=30	=30
0r	.	1.g	Tal	1c	co-	1e-X	co-	1.cc	fred-
.	.	.	.	1G	-re,	[1d	-re,	.	.
.	.	[2g	ch'o-	.	.	.	.	2b-i	-do
=31	=31	=31	=31	=31	=31	=31	=31	=31	=31
1r	.	2g]	.	1r	.	1d]	.	1a	co-
.	.	2f#X	-gni	.	.	.	.	.	.
1G	Tal	1g	fred-	2r	.	1d	<Tal	1b-y	-re,
.	.	.	.	[2d	Tal	.	.	.	.
=32	=32	=32	=32	=32	=32	=32	=32	=32	=32
1.F	ch'o-	2a	-do	2d]	.	2.f	ch'o-	0r	.
.	.	1a	co-	1c	ch'o-	.	.	.	.
.	.	.	.	.	.	4g	-gni	.	.
.	.	.	.	.	.	2a	fred-	.	.
2G	-gni	4g	.	2B-y	-gni	2b-y	-do	.	.
.	.	4fnXi	.	.	.	.	.	.	.
=33	=33	=33	=33	=33	=33	=33	=33	=33	=33
1.A	fred-	2.e	.	1c	fred-	1a	co-	1r	.
.	.	8dL	.	.	.	.	.	.	.
.	.	8eJ	.	.	.	.	.	.	.
.	.	2f#X	.	2c	-do	2a	-re,>	2r	.
[2G	-do	2g	-re,	[2B-y	co-	2d	Tal	[2b-y	<Tal
=34	=34	=34	=34	=34	=34	=34	=34	=34	=34
2G]	.	2r	.	4B-]	.	4d	ch'o-	2b-]	.
.	.	.	.	8AL	.	4e	.	.	.
.	.	.	.	8GJ	.	.	.	.	.
1F	co-	2d	<Tal	1A	.	4f	.	2.a	ch'o-
.	.	.	.	.	.	4g	.	.	.
.	.	2c	ch'o-	.	.	2a	.	.	.
.	.	.	.	.	.	.	.	4a	-gni
2G	.	2B-y	-gni	2d	-re,	[2g	-gni	2b-y	fred-
=35	=35	=35	=35	=35	=35	=35	=35	=35	=35
1C	.	2.c	fred-	0r	.	4g]	.	2a	-do
.	.	.	.	.	.	2f	fred-	.	.
.	.	.	.	.	.	.	.	1g	co-
.	.	4B-y	-do	.	.	4e-X	-do	.	.
1D	-re	1A	co-	.	.	1d	co-	.	.
.	.	.	.	.	.	.	.	2f#X	.
=36	=36	=36	=36	=36	=36	=36	=36	=36	=36
0r	.	1G	-re>	2r	.	2d	-re	2g	-re>
.	.	.	.	2g	Ar-	2b-y	Ar-	2dd	Ar-
.	.	1r	.	4f#X	-d'ed	4a	-d'ed	4dd	-d'ed
.	.	.	.	4g	a-	4b-y	a-	4dd	a-
.	.	.	.	2c	-vam-	2cc	-vam-	2ee-X	-vam-
=37	=37	=37	=37	=37	=37	=37	=37	=37	=37
2G	Ar-	2d	Ar-	2g	-pa,	2b-y	-pa,	4dd	-pa,
.	.	.	.	.	.	.	.	4b-y	<Ar-
4F#X	-d'ed	4d	-d'ed	4r	.	4r	.	4a	-d'ed
4G	a-	4d	a-	4d	<Ar-	2g	Ar-	4b-y	a-
2C	-vam-	2e-X	-vam-	4c	-d'ed	.	.	2cc	-vam-
.	.	.	.	4G	a-	2g	-d'ed	.	.
2G	-pa	4d	-pa,	4.B-y	-vam-	.	.	2b-y	-pa>
.	.	4g	a-	.	.	4b-y	a-	.	.
.	.	.	.	8c	.	.	.	.	.
=38	=38	=38	=38	=38	=38	=38	=38	=38	=38
2r	.	2f#X	-vam-	2d	.	2a	-vam-	2r	.
4r	.	4g	-pa	2G	-pa,>	4b-y	-pa	2.dd	d'a-
2G	d'a-	2g	d'a-	.	.	2b-y	d'a-	.	.
.	.	.	.	1r	.	.	.	.	.
4D	-mo-	4fnXi	-mo-	.	.	4a	-mo-	4dd	-mo-
4FnXi	-ro-	4f	-ro-	.	.	4a	-ro-	4cc	-ro-
4C	-so ar-	4e-X	-so ar-	.	.	4g	-so ar-	4cc	-so ar-
=39	=39	=39	=39	=39	=39	=39	=39	=39	=39
2D	-do-	2.d	-do-	2r	.	2f	-do-	2a	-do-
2G	-re,	.	.	2.d	<Ar-	4g	-re,	2b-y	-re,
.	.	4G	-re,	.	.	4g	Ar-	.	.
1r	.	1r	.	.	.	4f	-d'ed	4r	.
.	.	.	.	4c	-d'ed	4e	a-	2gg	Ar-
.	.	.	.	2B-y	a-	8dL	-vam-	.	.
.	.	.	.	.	.	8e	.	.	.
.	.	.	.	.	.	8f	.	[4ff	-d'ed
.	.	.	.	.	.	8gJ	.	.	.
=40	=40	=40	=40	=40	=40	=40	=40	=40	=40
1r	.	1r	.	2c	-vam-	4a	.	4ff]	.
.	.	.	.	.	.	2g	.	4ee	a-
.	.	.	.	1d	-pa>	.	.	4.dd	-vam-
.	.	.	.	.	.	4f#i	.	.	.
.	.	.	.	.	.	.	.	8cc	-pa
2.G	Ar-	2r	.	.	.	2g	-pa,	4.b-y	d'a-
.	.	.	.	.	.	.	.	8a	.
.	.	2d	Ar-	2r	.	2r	.	4g	.
[4F	-d'ed	.	.	.	.	.	.	4a	-mo-
=41	=41	=41	=41	=41	=41	=41	=41	=41	=41
4F]	.	4.c	-d'ed	1r	.	4r	.	4a	-ro-
4E	a-	.	.	.	.	2g	Ar-	4cc	-so ar-
.	.	8G	a-	.	.	.	.	.	.
2D	-vam-	4B-y	-vam-	.	.	.	.	2dd	-do-
.	.	4A	-pa	.	.	2fnXi	-d'ed	.	.
2C	-pa	4c	d'a-	4r	.	.	.	2g	-re,
.	.	4G	-mo-	2g	d'a-	4e	a-	.	.
4.D	d'a-	4B-y	-ro-	.	.	2d	-vam-	2r	.
.	.	8AL	.	4f	-mo-	.	.	.	.
8E	-mo-	8GJ	.	.	.	.	.	.	.
=42	=42	=42	=42	=42	=42	=42	=42	=42	=42
8FL	-ro-	4A	.	2f	-ro-	4c	-pa	4r	.
8E	.	.	.	.	.	.	.	.	.
8D	.	4F	-so ar-	.	.	2d	d'a-	2dd	d'a-
8CJ	.	.	.	.	.	.	.	.	.
4BB-y	.	4B-y	-do-	4d	-so ar-	.	.	.	.
4C	-so ar-	4G	-re,	2g	-do-	4e	-mo-	4cc	-mo-
1D	-do-	1r	.	.	.	4d	-ro-	4b-y	-ro-
.	.	.	.	8f#XL	.	4d	-so ar-	4b-y	-so ar-
.	.	.	.	8eJ	.	.	.	.	.
.	.	.	.	2f#i	.	2d	-do-	2a	-do-
=43	=43	=43	=43	=43	=43	=43	=43	=43	=43
2G	-re,	4r	.	4.g	.	4d	-re,	4g	-re,
.	.	4d	Ar-	.	.	2g	d'a-	4b-y	Ar-
.	.	.	.	8fnXi	.	.	.	.	.
4r	.	4c	-d'ed	4e	.	.	.	4cc	-d'ed
2d	Ar-	4B-y	a-	4d	-re,	4g	-mo-	4dd	a-
.	.	2A	-vam-	2r	.	4a	-ro-	4ff	-vam-
2c	-d'ed	.	.	.	.	4e	-so ar-	4ee	-pa,
.	.	2G	-pa,	4r	.	2g	-do-	4r	.
4B-y	a-	.	.	4d	Ar-	.	.	[4dd	<Ar-
=44	=44	=44	=44	=44	=44	=44	=44	=44	=44
2A	-vam-	4r	.	4e	-d'ed	2a	-re,	4dd]	.
.	.	4c	<Ar-	4f	a-	.	.	4cc	-d'ed
2G	-pa	4d	-d'ed	2g	-vam-	2r	.	2b-y	a-
.	.	4e	a-	.	.	.	.	.	.
2.F	d'a-	4f	-vamp-	4c	-pa	2r	.	2a	-vam-
.	.	4c	-pa>	2f	d'a-	.	.	.	.
.	.	[2c	d'a-	.	.	4.a	<d'a-	4f	-pa>
4F	-mo-	.	.	4f	-mo-	.	.	[4ff	d'a-
.	.	.	.	.	.	8b-y	-mo-	.	.
=45	=45	=45	=45	=45	=45	=45	=45	=45	=45
2C	-ro-	4c]	.	4g	-ro-	2cc	-ro-	4ff]	.
.	.	4c	-mo-	4G	-so ar-	.	.	4ee	-mo-
2G	-so ar-	4d	-ro-	8GL	-do-	4b-y	-so ar-	2.dd	-ro-
.	.	.	.	8A	.	.	.	.	.
.	.	4B-y	-so ar-	8B-y	.	2g	-do-	.	.
.	.	.	.	8cJ	.	.	.	.	.
1D	-do-	1A	-do-	1d	.	.	.	.	.
.	.	.	.	.	.	8f#XL	.	4dd	-so ar-
.	.	.	.	.	.	8eJ	.	.	.
.	.	.	.	.	.	2f#X	.	2dd	-do-
=46	=46	=46	=46	=46	=46	=46	=46	=46	=46
0Gl	-re.	0Gl	-re.	0dl	-re.	0gl	-re.>	0bnXl	-re.
==	==	==	==	==	==	==	==	==	==
*-	*-	*-	*-	*-	*-	*-	*-	*-	*-
!!!system-decoration: [*]
!!!RDF**kern: i = editorial accidental
!!!RDF**kern: l = terminal long
!!!ENC: Emiliano Ricciardi
!!!END: 2019
!!!EED: Ricciardi, Emiliano
!!!EEV: 2019/06/12
!!!YEC: Copyright 2018 Emiliano Ricciardi, All Rights Reserved
!!!ONB: Translated from MusicXML on 2019/06/12
!!@@BEGIN:	VERSEDATA
!!@SOLERTI:	276
!!@CATALOGNUM:	Trm0276
!!@LAST_MODIFIED: 2020/07/12
!!@TITLE:		Più che Dïana è bella e più mi piace
!!@GENRE:		madrigale
!!@MANUSRC:	E<sub>2</sub>, M<sub>7</sub>, V<sub>9</sub>
!!@PRINTSRC:	78, 174
!!@@BEGIN:	VERSES
!!@ABOUTIT:
!!@ABOUTEN:
!!@EDITOR:	Solerti, Angelo
!!@EDITION_TITLE: Le Rime di Torquato Tasso
!!@EDITION_LOC:	Bologna
!!@EDITION_PUB:	Romagnoli-Dall’Acqua
!!@EDITION_DATE:  1898-1902
!!@EDITION_VOL:	2
!!@EDITION_PAGE:  351
!!@TRANSLATOR:	Emiliano Ricciardi and Amyrose McCue Gill
!!@VERSE:
!!	Più che Dïana è bella e più mi piace
!!	Questa mia donna, anzi mia viva face;
!!	Ma non riscalda a pena
!!	Quando ella è più lucente e più serena,
!!	Né sparge i rai con rugiadose stille
!!	Ma con fiamme e faville;
!!	Tal ch'ogni freddo core
!!	Arde ed avvampa d'amoroso ardore.
!!@TVERSE:
!!	More beautiful than Diana and more pleasing to me is
!!	This my lady, or rather my lively blaze;
!!	But she warms [one] only barely
!!	When she is more agleam and more calm,
!!	Nor does she spill from her eyes dewy drops
!!	But flames and sparks;
!!	Such that every cold heart
!!	Burns and flares with amorous ardor.
!!@@END:		VERSES
!!@OTHER_CRIT_ED:   None
!!@ATTRIBUTION_ABOUT:	Secure
!!		<br>
!!		Among other sources (see Literary Sources), this poem appears in the authoritative manuscript It. 379a, Biblioteca Estense Universitaria, Modena.
!!@DATING:	Mid-1580s?
!!@DEDICATEE:
!!@COMMENTARY:
!!@@END:		VERSEDATA
!!@@BEGIN:	SETTING
!!@CATALOGNUM:	Trm0276a
!!@RIMETITLE:	Più che Dïana è bella e più mi piace
!!@SOLERTI:	276
!!@COMPOSER:	Bacchini, Giovanni Maria
!!@PRINCEPSFORMAT: anthology
!!@PRINCEPSTITLE:	L'amorosa caccia. A cinque voci
!!@PRINCEPSLOC:	Venetia
!!@NORMLOC:	Venice
!!@NORMPUB:	Angelo Gardano
!!@NORMPUBSHORT:	Gardano
!!@PRINCEPSPUB:	Gardano
!!@PRINCEPSYEAR:	1588
!!@PRINCEPSRISM:	1588-14
!!@REPRINTS:	1592-12
!!@OVOICES:	5
!!@EXTANTVOICES:	5
!!@PARTBOOKS:	
!!@EXTPARTBOOKS:	
!!@OCLEFS:	G2,C2,C3,C3,F3
!!@OMENSURATION:	Cut-C
!!@OKEYSIG:	b-
!!@FINAL:	G
!!@TIMPEDITOR:	Ricciardi, Emiliano
!!@NOTE:		
!!@@END:		SETTING
